X:2
T:All the Way to Galway [1]
M:C
L:1/8
R:Reel
B:P.H. Hughes - Gems from the Emerald Isle (c. 1860's, No. 42, p. 11)
Z:AK/Fiddler's Companion
K:D
defd AFFA|BGGB cAAc|defd AFFA|BGAG FD D2:|
|:ABAG AB =c2|GAGF EFG2|ABAG AB =c2|BGAG FDD:|]

